X:3019
T:Christmas Eve
T:O\'iche Nollaig
T:Strawberry Blossom, The
T:Boys of Ballynahinch, The
R:reel
H:Also as a slide, #41
D:Paul McGrattan: The Frost Is All Over
D:M\'iche\'al \'O S\'uilleabh\'ain: The Dolphin's Way
Z:id:hn-reel-719
M:C|
K:D
ag|fAdf edBA|(3Bcd ef geag|fAdf edge|dBAG FAdA|
defd edBA|(3Bcd ef geag|fAdf edge|dBAG FAde||
faaf dAde|faaf ~g3e|f2ab afdf|gfed ~B2A2|
faaf dAde|faaf ~g3a|bgaf gfed|(3Bcd ef ge||


